source/img/logo.svg

<svg width="54" height="62" viewBox="0 0 54 62" fill="none" xmlns="http://www.w3.org/2000/svg">
<path fill-rule="evenodd" clip-rule="evenodd" d="M15.6546 22.9626C15.6552 23.2107 15.3854 23.3539 15.1978 23.1915C13.78 21.9645 9.82008 17.8105 12.8936 11.8189C14.7812 8.13931 17.4171 6.57541 19.9485 5.07353C21.7865 3.98303 23.5694 2.92523 24.9707 1.11396C25.5675 0.342603 26.8101 0.334645 27.1072 1.26355C28.5161 5.66928 27.2601 10.5871 25.9646 15.6595C24.7728 20.326 23.5475 25.1233 24.3331 29.7731C24.4223 30.3012 23.8497 30.7258 23.4004 30.4345C19.8147 28.1092 15.6045 24.1395 17.4438 16.6243C17.5296 16.2735 17.106 16.085 16.9649 16.4173C16.0982 18.4592 15.6492 20.6855 15.6546 22.9626ZM14.3421 37.3474C14.5766 37.2661 14.5875 36.9609 14.3723 36.8373C12.3976 35.7035 10.6941 34.2015 9.35908 32.43C9.14178 32.1416 9.51691 31.869 9.77772 32.1187C15.3665 37.4692 20.9094 35.8079 24.716 33.8652C25.193 33.6218 25.1115 32.9136 24.6096 32.7268C20.19 31.0822 16.648 27.6225 13.2027 24.2571C9.45756 20.599 5.8266 17.0523 1.30665 16.0696C0.353664 15.8624 -0.260772 16.9426 0.108856 17.8451C0.97681 19.9643 1.00144 22.0372 1.02684 24.1742C1.06182 27.1174 1.09824 30.1821 3.34111 33.6566C6.99322 39.3142 12.5707 37.9617 14.3421 37.3474ZM39.6325 24.5828C39.398 24.6641 39.387 24.9694 39.6023 25.0929C41.577 26.2267 43.2805 27.7287 44.6155 29.5002C44.8328 29.7886 44.4576 30.0612 44.1968 29.8115C38.6081 24.461 33.0651 26.1224 29.2585 28.065C28.7816 28.3084 28.863 29.0167 29.3649 29.2034C33.7845 30.848 37.3265 34.3077 40.7719 37.6731C44.517 41.3313 48.148 44.8779 52.6679 45.8606C53.6209 46.0678 54.2353 44.9877 53.8657 44.0852C52.9977 41.966 52.9731 39.893 52.9477 37.756C52.9127 34.8128 52.8763 31.7481 50.6334 28.2736C46.9813 22.6161 41.4039 23.9685 39.6325 24.5828ZM38.7768 38.7388C38.5891 38.5764 38.3193 38.7195 38.3199 38.9677C38.3254 41.2447 37.8764 43.471 37.0097 45.5129C36.8686 45.8453 36.4449 45.6567 36.5308 45.306C38.3701 37.7907 34.1598 33.821 30.5742 31.4958C30.1249 31.2044 29.5523 31.6291 29.6415 32.1571C30.427 36.8069 29.2018 41.6042 28.01 46.2707C26.7145 51.3431 25.4585 56.2609 26.8674 60.6667C27.1645 61.5956 28.4071 61.5876 29.0039 60.8163C30.4052 59.005 32.1881 57.9472 34.0261 56.8567C36.5575 55.3548 39.1934 53.7909 41.0809 50.1113C44.1545 44.1197 40.1945 39.9657 38.7768 38.7388ZM25.6256 44.8163C25.8402 44.6917 26.0991 44.8538 26.0523 45.0975C25.6986 46.9387 24.0811 52.4452 17.3554 52.7792C13.225 52.9843 10.5527 51.4835 7.98633 50.0422C6.12292 48.9957 4.31538 47.9806 2.04612 47.6726C1.07973 47.5415 0.451513 46.4693 1.10744 45.7476C4.21845 42.3246 9.10542 40.9534 14.146 39.5391C18.7832 38.238 23.5504 36.9004 27.1845 33.8952C27.5972 33.554 28.2513 33.8375 28.2236 34.3723C28.0027 38.6402 26.6699 44.2712 19.2419 46.436C18.8952 46.537 18.9438 46.9982 19.3022 46.9542C21.5038 46.6838 23.6563 45.9595 25.6256 44.8163ZM27.9223 16.8327C27.8755 17.0765 28.1343 17.2386 28.3489 17.114C30.3182 15.9707 32.4707 15.2464 34.6724 14.976C35.0308 14.932 35.0793 15.3932 34.7327 15.4943C27.3046 17.659 25.9719 23.29 25.7509 27.5579C25.7233 28.0927 26.3774 28.3763 26.79 28.035C30.4241 25.0298 35.1913 23.6922 39.8285 22.3911C44.8691 20.9768 49.7561 19.6057 52.8671 16.1826C53.523 15.4609 52.8948 14.3887 51.9284 14.2576C49.6592 13.9497 47.8516 12.9345 45.9882 11.888C43.4219 10.4467 40.7495 8.94589 36.6191 9.15103C29.8934 9.48506 28.276 14.9915 27.9223 16.8327Z" fill="#CECFDB"/>
</svg>

<svg width="54" height="62" fill="none" xmlns="http://www.w3.org/2000/svg"><path fill-rule="evenodd" clip-rule="evenodd" d="M15.655 22.963c0 .248-.27.39-.457.229-1.418-1.227-5.378-5.381-2.304-11.373 1.887-3.68 4.523-5.244 7.054-6.745 1.838-1.091 3.621-2.149 5.023-3.96.596-.771 1.84-.78 2.136.15 1.41 4.405.153 9.323-1.142 14.395-1.192 4.667-2.418 9.464-1.632 14.114.09.528-.483.953-.933.662-3.585-2.326-7.795-6.295-5.956-13.81.086-.352-.338-.54-.48-.208a16.647 16.647 0 0 0-1.31 6.546Zm-1.313 14.384c.235-.08.245-.386.03-.51A16.647 16.647 0 0 1 9.36 32.43c-.217-.288.158-.561.419-.311 5.588 5.35 11.131 3.689 14.938 1.746.477-.243.395-.951-.106-1.138-4.42-1.645-7.962-5.104-11.407-8.47C9.458 20.6 5.827 17.052 1.307 16.07c-.953-.208-1.568.873-1.198 1.775.868 2.12.892 4.192.918 6.33.035 2.942.071 6.007 2.314 9.482 3.652 5.657 9.23 4.305 11.001 3.69Zm25.29-12.764c-.234.081-.245.386-.03.51a16.647 16.647 0 0 1 5.014 4.407c.217.289-.158.561-.42.311-5.588-5.35-11.13-3.689-14.937-1.746-.477.243-.396.952.106 1.138 4.42 1.645 7.962 5.105 11.407 8.47 3.745 3.658 7.376 7.205 11.896 8.188.953.207 1.567-.873 1.198-1.776-.868-2.119-.893-4.192-.918-6.329-.035-2.943-.072-6.008-2.315-9.482-3.652-5.658-9.23-4.306-11-3.691Zm-.855 14.156c-.188-.163-.458-.02-.457.229a16.645 16.645 0 0 1-1.31 6.545c-.141.332-.565.144-.48-.207 1.84-7.515-2.37-11.485-5.956-13.81-.45-.292-1.022.133-.933.661.786 4.65-.44 9.447-1.631 14.114-1.296 5.072-2.552 9.99-1.143 14.396.297.929 1.54.92 2.137.15 1.401-1.812 3.184-2.87 5.022-3.96 2.531-1.502 5.167-3.066 7.055-6.746 3.073-5.991-.887-10.145-2.304-11.372Zm-13.151 6.077c.214-.124.473.038.426.281-.353 1.842-1.97 7.348-8.697 7.682-4.13.205-6.802-1.296-9.369-2.737-1.863-1.046-3.67-2.061-5.94-2.37-.966-.13-1.594-1.203-.939-1.924 3.111-3.423 7.998-4.795 13.039-6.209 4.637-1.301 9.404-2.639 13.038-5.644.413-.341 1.067-.058 1.04.477-.221 4.268-1.554 9.9-8.982 12.064-.347.101-.298.562.06.518a16.648 16.648 0 0 0 6.324-2.138Zm2.296-27.983c-.047.244.212.406.427.281a16.646 16.646 0 0 1 6.323-2.138c.359-.044.407.417.06.518-7.427 2.165-8.76 7.796-8.981 12.064-.028.535.626.818 1.039.477 3.634-3.005 8.401-4.343 13.038-5.644 5.041-1.414 9.928-2.785 13.04-6.208.655-.722.027-1.794-.94-1.925-2.269-.308-4.076-1.323-5.94-2.37-2.566-1.441-5.239-2.942-9.369-2.737-6.726.334-8.343 5.84-8.697 7.682Z" fill="#CECFDB"/></svg>
